build/img/sprite.svg

<svg xmlns="http://www.w3.org/2000/svg" xmlns:xlink="http://www.w3.org/1999/xlink"><symbol id="icon-arrow-right" viewBox="0 0 6 9">
<path d="M1 8.5L5 4.5L1 0.5" stroke="white" stroke-linejoin="round"/>
</symbol><symbol id="icon-fb" viewBox="0 0 27 27">
<path fill-rule="evenodd" clip-rule="evenodd" d="M27 13.5C27 6.04462 20.9562 0 13.5 0C6.04379 0 0 6.04462 0 13.5C0 20.9562 6.04369 27 13.5 27C20.9562 27 27 20.9563 27 13.5ZM16.8836 9.29395H15.1437C14.6754 9.29395 14.3464 9.69053 14.3464 10.185V10.9604H16.8312L16.4288 13.4772H14.3455V20.2238H11.8025V13.4772H10.115V10.9604H11.8025V9.677H11.8075C11.8523 8.21392 12.3602 6.82092 14.8383 6.73315V6.72388H16.8836V9.29395Z" fill="#CDCDCD"/>
</symbol><symbol id="icon-mail" viewBox="0 0 19 14">
<path d="M16.6805 0H2.3234C1.0418 0 0 1.0087 0 2.24959V11.7504C0 12.9913 1.0418 14 2.3234 14H16.6766C17.9582 14 19 12.9913 19 11.7504V2.2534C19.0039 1.01251 17.9621 0 16.6805 0ZM17.9425 11.7504C17.9425 12.4241 17.3764 12.9723 16.6805 12.9723H2.3234C1.62756 12.9723 1.06145 12.4241 1.06145 11.7504V2.2534C1.06145 1.57966 1.62756 1.03154 2.3234 1.03154H16.6766C17.3724 1.03154 17.9385 1.57966 17.9385 2.2534V11.7504H17.9425Z" fill="#00B2FF"/>
<path d="M11.9827 6.88195L16.6295 2.84715C16.8457 2.65683 16.8654 2.33328 16.6688 2.12012C16.4723 1.91077 16.1381 1.89174 15.9179 2.08206L9.50992 7.65085L8.25977 6.56982C8.25584 6.56602 8.2519 6.56221 8.2519 6.5584C8.22439 6.53176 8.19687 6.50892 8.16542 6.48608L3.07831 2.07825C2.85816 1.88793 2.524 1.90696 2.32743 2.12012C2.13087 2.33328 2.15052 2.65683 2.37068 2.84715L7.07251 6.91621L2.39033 11.1604C2.17804 11.3545 2.16625 11.678 2.36674 11.8874C2.47289 11.994 2.61442 12.0511 2.75594 12.0511C2.88568 12.0511 3.01541 12.0054 3.11762 11.914L7.87057 7.60898L9.16004 8.72426C9.26225 8.8118 9.38805 8.85367 9.51385 8.85367C9.63965 8.85367 9.76939 8.808 9.86767 8.72045L11.1925 7.57091L15.9179 11.9178C16.0202 12.013 16.1538 12.0587 16.2836 12.0587C16.4251 12.0587 16.5627 12.0054 16.6688 11.8988C16.8693 11.6933 16.8615 11.3659 16.6492 11.1718L11.9827 6.88195Z" fill="#00B2FF"/>
</symbol><symbol id="icon-ok" viewBox="0 0 27 26">
<path d="M13.8512 10.957C14.8668 10.957 15.6568 10.1213 15.638 9.2113C15.6568 8.3013 14.8857 7.44702 13.87 7.44702C12.892 7.44702 12.0833 8.22702 12.0833 9.19273C12.0833 10.1584 12.8732 10.957 13.8512 10.957Z" fill="#CDCDCD"/>
<path d="M13.701 0C6.44113 0 0.5354 5.8314 0.5354 12.9999C0.5354 20.187 6.44113 25.9999 13.701 25.9999C20.9797 25.9999 26.8667 20.1685 26.8667 12.9999C26.8855 5.8314 20.9797 0 13.701 0ZM13.8891 4.9214C16.2589 4.9214 18.215 6.85282 18.1962 9.21138C18.1962 11.5885 16.2213 13.5014 13.8139 13.4642C11.4441 13.4271 9.54445 11.5142 9.54445 9.19281C9.54445 6.83425 11.4817 4.9214 13.8891 4.9214ZM18.7228 14.9499C18.7228 14.9871 18.704 15.0056 18.704 15.0428C18.6475 15.4142 18.4595 15.7114 18.1397 15.9156C17.9328 16.0456 17.7071 16.1756 17.4814 16.2871C16.9172 16.5656 16.3153 16.7885 15.6947 16.9371C15.6195 16.9556 15.6195 16.9556 15.6759 17.0113C16.0144 17.3456 16.3718 17.6985 16.7103 18.0328C17.1429 18.4599 17.5943 18.9056 18.0269 19.3328C18.6475 19.9456 18.4783 20.967 17.6883 21.3385C17.5567 21.4128 17.4062 21.4313 17.2558 21.4685C17.1805 21.4685 17.0865 21.4685 17.0112 21.4685C16.9924 21.4685 16.9736 21.4685 16.9736 21.4499C16.6727 21.4128 16.4282 21.2642 16.2025 21.0599C15.4502 20.317 14.679 19.5556 13.9267 18.8128C13.8703 18.7571 13.8703 18.7571 13.8139 18.8128C13.0427 19.5742 12.2904 20.317 11.5193 21.0785C11.3876 21.2085 11.256 21.3013 11.0867 21.3756C10.9739 21.4313 10.8422 21.4499 10.7294 21.4685C10.6541 21.4685 10.5789 21.4685 10.4849 21.4685C10.4472 21.4685 10.4284 21.4499 10.3908 21.4499C9.883 21.357 9.54445 21.0785 9.39399 20.5956C9.24352 20.1128 9.35637 19.6856 9.71373 19.3328C10.0335 19.017 10.3344 18.7199 10.6541 18.4042C11.1243 17.9399 11.5945 17.4756 12.0459 17.0299C12.1023 16.9742 12.1023 16.9742 12.0271 16.9556C12.0083 16.9556 11.9707 16.9371 11.9519 16.9371C11.1055 16.7328 10.3344 16.3985 9.60088 15.9528C9.16829 15.6742 8.9614 15.2656 9.01783 14.7642C9.11187 13.8356 10.1651 13.3342 10.9551 13.8356C11.1055 13.9285 11.2372 14.0028 11.4064 14.0771C12.2716 14.5042 13.1932 14.6899 14.1524 14.6342C14.6226 14.6156 15.0928 14.5228 15.563 14.3742C16.0144 14.2256 16.4094 14.0214 16.8232 13.7985C17.5003 13.4085 18.3842 13.7242 18.6475 14.4485C18.6852 14.5599 18.704 14.6528 18.7228 14.7642C18.7228 14.8199 18.7228 14.8756 18.7228 14.9499Z" fill="#CDCDCD"/>
</symbol><symbol id="icon-phone" viewBox="0 0 18 18">
<path d="M14.2333 11.1503C13.8642 10.7666 13.4191 10.5615 12.9473 10.5615C12.4794 10.5615 12.0304 10.7628 11.6462 11.1465L10.4439 12.3432C10.345 12.2901 10.2461 12.2407 10.151 12.1913C10.014 12.1229 9.88467 12.0583 9.77433 11.9899C8.64819 11.2757 7.62476 10.3449 6.64319 9.14066C6.16762 8.54041 5.84804 8.03514 5.61596 7.52227C5.92793 7.23735 6.21708 6.94102 6.49861 6.6561C6.60514 6.54972 6.71167 6.43955 6.8182 6.33318C7.61715 5.53538 7.61715 4.50205 6.8182 3.70425L5.77955 2.66712C5.66161 2.54935 5.53987 2.42778 5.42573 2.30621C5.19746 2.07067 4.95777 1.82754 4.71047 1.59959C4.34143 1.23489 3.9001 1.04114 3.43595 1.04114C2.97179 1.04114 2.52286 1.23489 2.1424 1.59959C2.1386 1.60339 2.1386 1.60339 2.13479 1.60719L0.841243 2.91026C0.35426 3.39653 0.076528 3.98918 0.0156552 4.6768C-0.0756541 5.78612 0.251537 6.81945 0.502638 7.49568C1.11898 9.15586 2.03968 10.6945 3.41312 12.3432C5.07952 14.3301 7.08452 15.8991 9.37486 17.0046C10.2499 17.4187 11.4179 17.9088 12.7229 17.9924C12.8028 17.9962 12.8865 18 12.9626 18C13.8414 18 14.5795 17.6847 15.1578 17.0578C15.1616 17.0502 15.1692 17.0464 15.173 17.0388C15.3708 16.7995 15.5991 16.5829 15.8388 16.3512C16.0024 16.1954 16.1698 16.0321 16.3334 15.8611C16.71 15.4698 16.9079 15.014 16.9079 14.5467C16.9079 14.0756 16.7062 13.6235 16.322 13.2436L14.2333 11.1503ZM15.5953 15.1507C15.5915 15.1507 15.5915 15.1545 15.5953 15.1507C15.4469 15.3103 15.2947 15.4546 15.1311 15.6142C14.8838 15.8497 14.6327 16.0967 14.3969 16.374C14.0126 16.7843 13.5599 16.978 12.9664 16.978C12.9093 16.978 12.8484 16.978 12.7913 16.9742C11.6614 16.9021 10.6113 16.4614 9.82379 16.0853C7.67042 15.0443 5.77955 13.5665 4.20827 11.6936C2.91092 10.1322 2.04348 8.68857 1.46899 7.13857C1.11517 6.19262 0.985816 5.4556 1.04288 4.76038C1.08093 4.3159 1.25214 3.94739 1.56791 3.63207L2.86527 2.33661C3.05169 2.16185 3.24953 2.06687 3.44356 2.06687C3.68324 2.06687 3.87728 2.21124 3.99902 2.33281C4.00283 2.33661 4.00663 2.3404 4.01044 2.3442C4.24251 2.56075 4.46318 2.78489 4.69526 3.02423C4.8132 3.1458 4.93494 3.26737 5.05669 3.39273L6.09533 4.42987C6.49861 4.83256 6.49861 5.20487 6.09533 5.60757C5.985 5.71774 5.87847 5.82791 5.76814 5.93428C5.44856 6.261 5.14419 6.56492 4.8132 6.86124C4.80559 6.86884 4.79798 6.87264 4.79417 6.88024C4.46698 7.20695 4.52786 7.52607 4.59634 7.74262C4.60014 7.75401 4.60395 7.76541 4.60775 7.77681C4.87787 8.43024 5.25833 9.04568 5.83662 9.7789L5.84043 9.78269C6.89048 11.0744 7.99761 12.0811 9.21887 12.8523C9.37486 12.9511 9.53465 13.0309 9.68683 13.1068C9.82379 13.1752 9.95315 13.2398 10.0635 13.3082C10.0787 13.3158 10.0939 13.3272 10.1091 13.3348C10.2385 13.3994 10.3602 13.4298 10.4858 13.4298C10.8016 13.4298 10.9994 13.2322 11.0641 13.1676L12.3652 11.8684C12.4946 11.7392 12.7 11.5834 12.9397 11.5834C13.1756 11.5834 13.3696 11.7316 13.4876 11.8608C13.4914 11.8646 13.4914 11.8646 13.4952 11.8684L15.5915 13.9616C15.9834 14.3491 15.9834 14.748 15.5953 15.1507Z" fill="#00B2FF"/>
<path d="M9.72843 4.28169C10.7252 4.44885 11.6307 4.91992 12.3536 5.64174C13.0764 6.36355 13.5444 7.26772 13.7156 8.26307C13.7575 8.5138 13.9743 8.68856 14.2216 8.68856C14.252 8.68856 14.2787 8.68476 14.3091 8.68096C14.5907 8.63537 14.7771 8.36944 14.7314 8.08831C14.526 6.88402 13.9553 5.7861 13.0841 4.91613C12.2128 4.04615 11.1133 3.4763 9.90725 3.27115C9.62571 3.22556 9.3632 3.41171 9.31374 3.68904C9.26428 3.96637 9.4469 4.2361 9.72843 4.28169Z" fill="#00B2FF"/>
<path d="M17.9921 7.94018C17.6535 5.95709 16.7176 4.15255 15.2795 2.71652C13.8414 1.28049 12.0342 0.345932 10.0482 0.00781895C9.77051 -0.0415684 9.50799 0.148383 9.45853 0.425712C9.41288 0.70684 9.5993 0.968972 9.88084 1.01836C11.6538 1.31848 13.2707 2.15807 14.5566 3.43834C15.8426 4.72241 16.6796 6.33699 16.9801 8.10734C17.022 8.35808 17.2388 8.53283 17.4861 8.53283C17.5166 8.53283 17.5432 8.52903 17.5736 8.52523C17.8514 8.48344 18.0416 8.21751 17.9921 7.94018Z" fill="#00B2FF"/>
</symbol><symbol id="icon-vk" viewBox="0 0 27 26">
<path d="M19.475 15.1271C18.3662 14.1029 18.287 14.1029 19.2374 12.9211C20.4254 11.4243 22.0095 9.53349 20.5838 9.53349H17.9701C17.4949 9.53349 17.4157 9.84862 17.2573 10.2425C16.6237 11.7394 15.3565 13.709 14.8812 13.3938C14.406 13.0787 14.6436 11.897 14.6436 10.0062C14.7228 9.76984 14.6436 9.53349 14.4852 9.37592C14.3268 9.21836 14.0892 9.06079 13.8516 9.06079C13.4556 8.98201 13.0596 8.90323 12.6636 8.90323C11.1587 8.90323 10.1291 9.53349 10.6835 9.61227C11.7131 9.76984 11.6339 11.9758 11.3963 12.9211C11.0003 14.5756 9.41624 11.6606 8.70342 10.1638C8.62421 9.76984 8.3074 9.53349 7.91139 9.53349H5.85212C5.53531 9.53349 5.2977 9.61227 5.2977 9.84862C5.2977 10.2425 7.27777 14.1029 9.09943 16.0725C10.9211 17.9632 12.7428 17.8057 14.01 17.8057C14.1684 17.8057 14.3268 17.7269 14.406 17.6481C14.4852 17.5693 14.5644 17.4118 14.5644 17.2542C14.5644 15.9937 15.0396 15.3634 15.9109 16.23C16.8613 17.1754 17.0989 17.8057 18.287 17.8057H20.4254C20.9799 17.8057 21.1383 17.6481 21.1383 17.4118C21.2175 16.8603 20.267 15.8361 19.475 15.1271ZM13.8516 0.000789162C21.2175 0.158354 27.0785 6.06705 26.9993 13.2363C26.9201 20.4055 20.8214 26.0778 13.4556 25.9991C6.01052 25.9203 0.0703125 20.1691 0.0703125 12.9999C0.149515 5.75192 6.32733 -0.0779935 13.8516 0.000789162Z" fill="#CDCDCD"/>
</symbol></svg>

<svg xmlns="http://www.w3.org/2000/svg" xmlns:xlink="http://www.w3.org/1999/xlink"><symbol id="icon-arrow-right"><path d="M1 8.5l4-4-4-4" stroke="#fff" stroke-linejoin="round"/></symbol><symbol id="icon-fb"><path fill-rule="evenodd" clip-rule="evenodd" d="M27 13.5C27 6.045 20.956 0 13.5 0S0 6.045 0 13.5C0 20.956 6.044 27 13.5 27S27 20.956 27 13.5zM16.884 9.294h-1.74c-.469 0-.798.397-.798.891v.775h2.485l-.402 2.517h-2.083v6.747h-2.543v-6.747h-1.688V10.96h1.688V9.677h.004c.045-1.463.553-2.856 3.031-2.944v-.01h2.046v2.571z" fill="#CDCDCD"/></symbol><symbol id="icon-mail"><path d="M16.68 0H2.323C1.042 0 0 1.009 0 2.25v9.5C0 12.991 1.042 14 2.323 14h14.354C17.958 14 19 12.991 19 11.75V2.253C19.004 1.013 17.962 0 16.68 0zm1.262 11.75c0 .674-.566 1.222-1.262 1.222H2.323c-.695 0-1.262-.548-1.262-1.222V2.253c0-.673.567-1.221 1.262-1.221h14.354c.695 0 1.262.548 1.262 1.221v9.497h.003z"/><path d="M11.983 6.882l4.646-4.035a.505.505 0 00.04-.727.546.546 0 00-.751-.038L9.51 7.651 8.26 6.57c-.004-.004-.008-.008-.008-.012a.78.78 0 00-.087-.072L3.078 2.078a.542.542 0 00-.75.042.502.502 0 00.043.727l4.702 4.07L2.39 11.16a.504.504 0 00-.023.727.541.541 0 00.75.027l4.754-4.305L9.16 8.724a.54.54 0 00.708-.004l1.325-1.15 4.725 4.348c.102.095.236.14.366.14a.537.537 0 00.385-.16.504.504 0 00-.02-.726l-4.666-4.29z"/></symbol><symbol id="icon-ok"><path d="M13.851 10.957c1.016 0 1.806-.836 1.787-1.746.019-.91-.752-1.764-1.768-1.764-.978 0-1.787.78-1.787 1.746 0 .965.79 1.764 1.768 1.764z" fill="#CDCDCD"/><path d="M13.701 0C6.441 0 .535 5.831.535 13c0 7.187 5.906 13 13.166 13 7.279 0 13.166-5.831 13.166-13C26.885 5.83 20.98 0 13.7 0zm.188 4.921c2.37 0 4.326 1.932 4.307 4.29 0 2.377-1.975 4.29-4.382 4.253-2.37-.037-4.27-1.95-4.27-4.271 0-2.359 1.938-4.272 4.345-4.272zm4.834 10.029c0 .037-.019.056-.019.093a1.213 1.213 0 01-.564.873c-.207.13-.433.26-.659.371a8.55 8.55 0 01-1.786.65c-.075.019-.075.019-.02.074l1.035 1.022 1.317 1.3c.62.613.451 1.634-.339 2.006-.131.074-.282.092-.432.13h-.245c-.019 0-.037 0-.037-.02-.301-.036-.546-.185-.771-.39l-2.276-2.246c-.057-.056-.057-.056-.113 0l-2.295 2.265c-.131.13-.263.223-.432.298-.113.055-.245.074-.358.092h-.244c-.038 0-.057-.018-.094-.018-.508-.093-.847-.372-.997-.854-.15-.483-.038-.91.32-1.263l.94-.929 1.392-1.374c.056-.056.056-.056-.019-.074-.019 0-.056-.019-.075-.019a8.182 8.182 0 01-2.351-.984c-.433-.279-.64-.687-.583-1.189.094-.928 1.147-1.43 1.937-.928.15.092.282.167.451.241a5.413 5.413 0 002.746.557c.47-.018.94-.111 1.411-.26.451-.148.846-.353 1.26-.575.677-.39 1.561-.075 1.825.65.037.11.056.204.075.315v.186z" fill="#CDCDCD"/></symbol><symbol id="icon-phone"><path d="M14.233 11.15c-.369-.383-.814-.588-1.286-.588-.468 0-.917.2-1.3.585l-1.203 1.196c-.099-.053-.198-.102-.293-.152a4.832 4.832 0 01-.377-.201c-1.126-.714-2.15-1.645-3.13-2.85-.476-.6-.796-1.105-1.028-1.618.312-.285.601-.581.883-.866l.32-.323c.798-.798.798-1.831 0-2.629l-1.04-1.037c-.117-.118-.24-.24-.353-.36A17.952 17.952 0 004.71 1.6c-.369-.365-.81-.559-1.274-.559-.464 0-.913.194-1.294.559l-.007.007L.84 2.91a2.778 2.778 0 00-.825 1.767c-.092 1.11.236 2.142.487 2.819.616 1.66 1.537 3.198 2.91 4.847a17.9 17.9 0 005.962 4.662c.875.414 2.043.904 3.348.987.08.004.163.008.24.008.878 0 1.617-.315 2.195-.942.004-.008.011-.012.015-.02.198-.239.426-.455.666-.687.163-.156.33-.319.494-.49.377-.391.575-.847.575-1.314 0-.471-.202-.924-.586-1.303l-2.089-2.094zm1.362 4c-.004 0-.004.005 0 0-.148.16-.3.305-.464.464a9.977 9.977 0 00-.734.76c-.384.41-.837.604-1.43.604-.058 0-.119 0-.176-.004-1.13-.072-2.18-.513-2.967-.889a16.898 16.898 0 01-5.616-4.391C2.911 10.132 2.043 8.689 1.47 7.139c-.354-.946-.483-1.683-.426-2.379.038-.444.21-.813.525-1.128l1.297-1.295c.187-.175.385-.27.579-.27.24 0 .433.144.555.266l.011.011c.233.217.453.44.685.68.118.122.24.243.362.369L6.095 4.43c.404.403.404.775 0 1.178-.11.11-.217.22-.327.326-.32.327-.624.63-.955.927-.007.008-.015.012-.019.02-.327.326-.266.645-.198.862l.012.034c.27.653.65 1.269 1.229 2.002l.003.004c1.05 1.291 2.158 2.298 3.379 3.07.156.098.316.178.468.254.137.068.266.133.377.201.015.008.03.02.045.027.13.064.251.095.377.095.316 0 .513-.198.578-.262l1.301-1.3c.13-.129.335-.285.575-.285.236 0 .43.149.548.278l.007.007 2.097 2.094c.391.387.391.786.003 1.189zM9.728 4.282a4.827 4.827 0 012.626 1.36 4.84 4.84 0 011.362 2.621.51.51 0 00.506.426c.03 0 .057-.004.087-.008a.513.513 0 00.422-.593 5.856 5.856 0 00-1.647-3.172 5.871 5.871 0 00-3.177-1.645.516.516 0 00-.593.418.507.507 0 00.414.593zm8.264 3.658a9.635 9.635 0 00-2.713-5.223 9.659 9.659 0 00-5.23-2.71.512.512 0 10-.168 1.011 8.65 8.65 0 014.676 2.42 8.601 8.601 0 012.423 4.67.51.51 0 00.506.425c.03 0 .057-.004.088-.008a.503.503 0 00.418-.585z"/></symbol><symbol id="icon-vk"><path d="M19.475 15.127c-1.109-1.024-1.188-1.024-.238-2.206 1.188-1.497 2.773-3.388 1.347-3.388H17.97c-.475 0-.554.316-.713.71-.633 1.496-1.9 3.466-2.376 3.15-.475-.314-.237-1.496-.237-3.387a.61.61 0 00-.159-.63c-.158-.158-.396-.315-.633-.315-.396-.079-.792-.158-1.188-.158-1.505 0-2.535.63-1.98.71 1.03.157.95 2.363.712 3.308-.396 1.655-1.98-1.26-2.693-2.757-.079-.394-.396-.63-.792-.63H5.852c-.317 0-.554.078-.554.315 0 .393 1.98 4.254 3.801 6.224 1.822 1.89 3.644 1.733 4.911 1.733a.607.607 0 00.396-.158.6.6 0 00.158-.394c0-1.26.476-1.89 1.347-1.024.95.945 1.188 1.576 2.376 1.576h2.138c.555 0 .713-.158.713-.394.08-.552-.871-1.576-1.663-2.285zM13.852.001c7.366.157 13.226 6.066 13.147 13.235-.079 7.17-6.178 12.842-13.543 12.763C6.01 25.92.07 20.17.07 13 .15 5.753 6.327-.077 13.852.002z" fill="#CDCDCD"/></symbol></svg>
